app/assets/images/payment_icons/qris.svg

<svg xmlns="http://www.w3.org/2000/svg" role="img" viewBox="0 0 38 24" width="38" height="24" aria-labelledby="pi-qris"><title id="pi-qris">QRIS</title><path fill="#000" opacity=".07" d="M35 0H3C1.3 0 0 1.3 0 3v18c0 1.7 1.4 3 3 3h32c1.7 0 3-1.3 3-3V3c0-1.7-1.4-3-3-3z"/><path fill="#fff" d="M35 1c1.1 0 2 .9 2 2v18c0 1.1-.9 2-2 2H3c-1.1 0-2-.9-2-2V3c0-1.1.9-2 2-2h32"/><g clip-path="url(#clip0)" fill="#010101"><path d="M34.607 13.678V10.445H29.21V9.367h5.397V7.212h-8.635V12.6h5.398v1.078h-5.398v2.155h8.635v-2.155zM24.893 7.212h-2.159v8.62h2.16v-8.62zM13.02 7.212v2.155h6.476v1.078H13.02v5.388h2.158v-3.2l3.24 3.2h3.237L18.277 12.6h3.378V7.212h-8.634zM6.543 12.6h2.154v-2.15H6.543v2.15zm.541-1.616h1.079v1.077H7.084v-1.077z"/><path d="M5.465 7.212h-1.89a.273.273 0 00-.249.167.269.269 0 00-.02.103v8.08a.269.269 0 00.27.27h5.127v-2.15H5.465v-6.47zM11.67 7.212H6.544v2.155h3.24V12.6h2.153V7.482a.273.273 0 00-.076-.191.277.277 0 00-.19-.08zM11.942 13.678h-2.16v4.85h2.16v-4.85z"/><path d="M6.318 6H2.27a.271.271 0 00-.27.27v4.04h.54V6.804a.27.27 0 01.27-.264h3.513L6.318 6zM35.46 13.004v3.507a.27.27 0 01-.27.27h-3.512v.534h4.048a.273.273 0 00.253-.166.27.27 0 00.021-.104v-4.041h-.54z"/></g><defs></defs></svg>

<svg xmlns="http://www.w3.org/2000/svg" width="38" height="24" fill="none" aria-labelledby="pi-qris" role="img" viewBox="0 0 38 24"><title id="pi-qris">QRIS</title><path fill="#fff" d="M0 0h38v24H0z"/><path fill="#010101" d="M34.6 13.68v-3.23h-5.39V9.37h5.4V7.2h-8.64v5.39h5.4v1.08h-5.4v2.15h8.64v-2.15ZM24.9 7.2h-2.17v8.62h2.16V7.21Zm-11.88 0v2.16h6.48v1.08h-6.48v5.38h2.16v-3.2l3.24 3.2h3.23l-3.37-3.23h3.38V7.21h-8.64Zm-6.48 5.4H8.7v-2.15H6.54zm.54-1.62h1.08v1.08H7.08z"/><path fill="#010101" d="M5.46 7.21H3.58a.27.27 0 0 0-.27.27v8.08a.27.27 0 0 0 .27.27H8.7v-2.15H5.47V7.21Zm6.21 0H6.54v2.16h3.24v3.23h2.16V7.48a.27.27 0 0 0-.08-.19.28.28 0 0 0-.19-.08m.27 6.47H9.78v4.85h2.16z"/><path fill="#010101" d="M6.32 6H2.27a.27.27 0 0 0-.27.27v4.04h.54v-3.5a.27.27 0 0 1 .27-.27h3.51zm29.14 7v3.51a.27.27 0 0 1-.27.27h-3.51v.54h4.05a.27.27 0 0 0 .27-.27V13z"/></svg>
